!!!CDT:
!!!PTL: Il primo libro de madrigali a cinque voci
!!!PPP: Venice
!!!PPR: Giacomo Vincenzi
!!!PDT: 1600
!!!PUB-format:
!!!RISM: 2781
!!!rime: 433
!!!AGN: Madrigal
!!!SCT: Trm0433f
!!!SCA: Trm0433f
!!!original-voices: 5
!!!extant-voices: 2
!!!complete: N
!!!final: G
!!!COM: Della Rota, Adriano 
!!!OTL: Se tu mi lasci, perfida, tuo danno
**kern	**text	**kern	**text
*part2	*part2	*part1	*part1
*staff2	*staff2	*staff1	*staff1
*I"Basso	*	*I"Canto	*
*I'B	*	*I'C	*
*oclefF4	*	*oclefC1	*
*clefF4	*	*clefG2	*
*k[b-]	*	*k[b-]	*
*F:	*	*F:	*
*omet(C)	*	*omet(C)	*
*M4/2	*	*M4/2	*
=1	=1	=1	=1
2r	.	4g	Se
.	.	8f#X	tu
.	.	8f#i	mi
4G	Se	4g	la-
8D	tu	4a	-sci,
8D	mi	.	.
4E-X	la-	4r	.
4D	-sci,	4dd	per-
4r	.	4.bnX	-fi-
[4G	per-	.	.
.	.	8bni	-do,
=2	=2	=2	=2
4G]	.	4bnXi	tuo
4F	-fi-	4cc	dan-
2B-y	-do,	4dd	-no,
.	.	4d	<per-
2F	tuo	2a	-fi-
2G	dan-	[2g	-do,
=3	=3	=3	=3
1D	-no:	4g]	.
.	.	4f#X	tuo
.	.	2f#i	dan-
2r	.	1g	-no:>
2GG	Non	.	.
=4	=4	=4	=4
4C	ti	2r	.
4BBnX	pen-	.	.
2C	-sar,	2g	Non
2r	.	4cc	ti
.	.	4bnX	pen-
4r	.	4cc	-sar,
4F	<Non	4cc	<Non
=5	=5	=5	=5
2F	ti	4a	ti
.	.	4a	pen-
2BB-X	pen-	2.b-i	-sar>
4GG	-sar>	.	.
4GG	che	4b-y	che
2AA	si-	2a	si-
=6	=6	=6	=6
1D	-a	4f#X	-a
.	.	2f#i	Mi-
.	.	4f#i	-se-
1r	.	1f#i	-ra
=7	=7	=7	=7
1r	.	2g	sen-
.	.	2a	-za
2.BB-y	Mi-	1b-y	te
4BB-y	-se-	.	.
=8	=8	=8	=8
2BB-y	-ra	0r	.
4D	sen-	.	.
4C	-za	.	.
2F	te	.	.
2BB-y	la	.	.
=9	=9	=9	=9
4.C	vi-	1r	.
8AA	-ta	.	.
2C	mi-	.	.
1D	-a.	2r	.
.	.	2a	la
=10	=10	=10	=10
1r	.	4.b-y	vi-
.	.	8a	-ta
.	.	2b-y	mi-
2r	.	2a	-a.
[2AA	Mi-	[2e	Mi-
=11	=11	=11	=11
4AA]	.	4e]	.
4AA	-se-	4e	-se-
1AA	-ra,	2e	-ra,
.	.	2.a	<Mi-
4.D	<Mi-	.	.
.	.	4a	-se-
8D	-se-	.	.
=12	=12	=12	=12
2D	-ra>	2a	-ra>
4G	ben	4r	.
4E	sa-	4cc	ben
4F	-re-	4a	sa-
4G	-i,	4bnX	-re-
2r	.	2cc	-i,
=13	=13	=13	=13
4BB-y	ben	2r	.
4AA	sa-	.	.
2BB-y	-re-	4dd	ben
.	.	2b-i	sa-
2F	-i	.	.
.	.	4a	-re-
[2C	Se	2cc	-i
=14	=14	=14	=14
4C]	.	4g	Se
4BB-y	mi-	4b-y	mi-
2F	-se-	2a	-se-
2G	-ria	2g	-ria
2D	sti-	2f#X	sti-
=15	=15	=15	=15
2.G	-mas-	2.g	-mas-
4E	-si e	4g	-si e
4F	non	4a	non
4BB-y	ven-	4b-y	ven-
2E-i	-tu-	2g	-tu-
=16	=16	=16	=16
1D	-ra	1f#X	-ra,
1r	.	4a	<Se
.	.	4bnX	mi-
.	.	2cc	-se-
=17	=17	=17	=17
0r	.	2cc	-ria
.	.	2a	sti-
.	.	2.cc	-mas-
.	.	4cc	-si e
=18	=18	=18	=18
0r	.	4b-y	non
.	.	4a	ven-
.	.	2.dd	.
.	.	4cc#X	.
.	.	2cc#i	-tu-
=19	=19	=19	=19
2B-y	Per-	4dd	-ra>
.	.	4dd	Per-
4G	-der	4bnX	-der
4F	chi	4ccnXi	chi
4B-y	non	4dd	non
4A	mi	4.cc	mi
4.B-y	cu-	.	.
.	.	8b-i	.
.	.	[4b-y	cu-
16AL	.	.	.
16GJ	.	.	.
=20	=20	=20	=20
2F	.	8b-]L	.
.	.	16a	.
.	.	16gJ	.
.	.	4a	.
4BB-y	-ra	2b-y	-ra
4B-y	E	.	.
4F	ri-	2r	.
4D	-co-	.	.
2G	-vrar,	2dd	E
=21	=21	=21	=21
4r	.	4cc	ri-
4D	E	4dd	-co-
4GG	ri-	2b-y	-vrar,
4GG	-co-	.	.
8DL	-vrar	4r	.
8E	.	.	.
8F	.	4a	E
8GJ	.	.	.
2A	.	4a	ri-
.	.	4e	-co-
=22	=22	=22	=22
0r	.	8fL	-vrar
.	.	8g	.
.	.	8a	.
.	.	8b-yJ	.
.	.	1cc	.
.	.	2r	.
=23	=23	=23	=23
2r	.	2r	.
4D	quel	4a	quel
8D	che	8a	che
8D	di	8a	di
4BB-y	me	4d	me
4GG	per-	4dd	per-
2G	-de-	2b-y	-de-
=24	=24	=24	=24
1D	-i,	2a	-i,
.	.	2dd	E
1r	.	2bnX	ri-
.	.	2cc	-co-
=25	=25	=25	=25
2r	.	1a	-vrar
2D	E	.	.
2G	ri-	1r	.
2E	-co-	.	.
=26	=26	=26	=26
2F	-vrar	1r	.
2D	quel	.	.
2C	che	2r	.
2BB-y	di	4dd	quel
.	.	8dd	che
.	.	8dd	di
=27	=27	=27	=27
2C	me	2cc	me
2GG	per-	2b-y	per-
2D	-de-	2a	-de-
2GG	-i.	2bnX	-i.
=28	=28	=28	=28
2.G	Mi-	2.bnXi	Mi-
8G	-se-	8bni	-se-
8G	-ro	8bni	-ro
1G	tu,	2bni	tu,
.	.	2r	.
=29	=29	=29	=29
2.E-X	<Mi-	2.g	<Mi-
8E-i	-se-	8g	-se-
8E-i	-ro	8g	-ro
1E-i	tu,>	1g	tu,>
=30	=30	=30	=30
0r	.	4b-y	che
.	.	8a	per
.	.	8b-y	no-
.	.	4a	-vel-
.	.	4f#X	-lo a-
.	.	2g	-mo-
.	.	2f#X	-re
=31	=31	=31	=31
4D	che	1r	.
8C	per	.	.
8D	no-	.	.
4C	-vel-	.	.
4AA	-lo a-	.	.
2BB-y	-mo-	2r	.
2AA	-re	2e	Per-
=32	=32	=32	=32
0r	.	4f#X	-di
.	.	4g	quel
.	.	4a	fi-
.	.	4fnXi	-do
.	.	2b-y	co-
.	.	2b-y	-re,
=33	=33	=33	=33
2r	.	0r	.
2C	Per-	.	.
4BB-y	-di	.	.
4C	quel	.	.
4D	fi-	.	.
4BB-y	-do	.	.
=34	=34	=34	=34
2F	co-	2r	.
4BB-y	-re,	2dd	<Per-
4BB-y	<Per-	.	.
2E-i	-di	2b-y	-di
4C	quel	2cc	quel
[4F	fi-	.	.
=35	=35	=35	=35
4F]	.	4cc	fi-
4BB-y	-do	4dd	-do
2C	co-	2cc	co-
1F	-re>	2cc	-re>
.	.	2cc	Ch'e-
=36	=36	=36	=36
2r	.	4cc	-ra
.	.	4b-y	più
2c	Ch'e-	2a	tuo,
4c	-ra	2r	.
4B-y	più	.	.
2A	tuo,	2cc	<Ch'e-
=37	=37	=37	=37
1r	.	4cc	-ra
.	.	4b-y	più
.	.	2a	tuo,>
2D	<Ch'e-	1r	.
4D	-ra	.	.
4C	più	.	.
=38	=38	=38	=38
4BB-y	tuo,>	2f	<Ch'e-
4BB-y	<Ch'e-	.	.
4BB-y	-ra	2.f	-ra
4FF	più	.	.
1BB-y	tuo>	.	.
.	.	4f	più
.	.	2b-y	tuo>
=39	=39	=39	=39
0r	.	2r	.
.	.	2g	che
.	.	2a	tu
.	.	2a	di
=40	=40	=40	=40
1r	.	2a	te
.	.	2g	non
2r	.	1a	se-
2AA	Ma	.	.
=41	=41	=41	=41
1D	il	2a	-i;
.	.	2dd	Ma
2BB-y	tuo	2dd	il
2B-y	già	2dd	tuo
=42	=42	=42	=42
2F	per-	4cc	già
.	.	4cc	non
2G	-d'i-	2b-y	per-
2D	-o	2a	-d'i-
2GG	Per-	2dd	-o
=43	=43	=43	=43
2C	-ché	2cc	Per-
2F	non	2a	-ché
2.BB-y	fu	2b-y	non
.	.	[2g	fu
4C	mai	.	.
=44	=44	=44	=44
1D	mi-	4g]	.
.	.	4f#X	mai
.	.	2f#i	mi-
2GG	-o,	2g	-o,
2GG	Per-	2dd	Per-
=45	=45	=45	=45
2C	-ché	2cc	-ché
2F	non	2a	non
2.BB-y	fu	2b-y	fu
.	.	[2g	mai
4C	mai	.	.
=46	=46	=46	=46
1D	mi-	4g]	.
.	.	4f#X	.
.	.	2f#i	mi-
1GGl	-o.	1gl	-o.
==	==	==	==
*-	*-	*-	*-
!!!system-decoration: [*]
!!!RDF**kern: i = editorial accidental
!!!RDF**kern: l = terminal long
!!!ENC: Emiliano Ricciardi
!!!END: 2019/08/08
!!!EED: Ricciardi, Emiliano
!!!EEV: 2019/08/08
!!!YEC: Copyright 2018 Emiliano Ricciardi, All Rights Reserved
!!!ONB: Translated from MusicXML on 2019/08/08 and edited by Craig Stuart Sapp
!!@@BEGIN:	VERSEDATA
!!@SOLERTI:	433
!!@CATALOGNUM:	Trm0433
!!@LAST_MODIFIED: 2020/07/12
!!@ATTRIBUTION:	not secure
!!@TITLE:		Se tu mi lasci, perfida, tuo danno
!!@GENRE:		madrigale
!!@MANUSRC:	none
!!@PRINTSRC:	27, 70, 78, 141, 145, 166, 169
!!@@BEGIN:	VERSES
!!@ABOUTIT:	[Ad istanza di...]
!!@ABOUTEN:	[On behalf of...]
!!@EDITOR:	Solerti, Angelo
!!@EDITION_TITLE: Le Rime di Torquato Tasso
!!@EDITION_LOC:	Bologna
!!@EDITION_PUB:	Romagnoli-Dall’Acqua
!!@EDITION_DATE:  1898-1902
!!@EDITION_VOL:	2
!!@EDITION_PAGE:  467
!!@TRANSLATOR:	Emiliano Ricciardi and Amyrose McCue Gill
!!@VERSE:
!!	Se tu mi lasci, perfida, tuo danno:
!!	Non ti pensar che sia
!!	Misera senza te la vita mia.
!!	Misero ben sarei
!!	Se miseria i' stimassi e non ventura
!!	Perder chi non mi cura
!!	E ricovrar quel che di me perdei.
!!	Misera tu, che per novello amore
!!	Perdi quel fido core
!!	Ch'era più tuo che tu di te non sei;
!!	Ma il tuo già non perd'io
!!	Perché non fu mai mio.
!!@TVERSE:
!!	If you leave me, wicked lady, your loss:
!!	Do not think to yourself that
!!	Miserable without you will my life be.
!!	I would well be miserable
!!	If I were to deem [it] misery and not fortune
!!	To lose she who cares not for me
!!	And to recover that [part] of me which I lost.
!!	You [will be] miserable, as for a new love
!!	You lose that faithful heart
!!	That was more yours than you yourself are.
!!	But yours I am indeed not losing
!!	Because it was never mine.
!!@@END:		VERSES
!!@OTHER_CRIT_ED:   None
!!@ATTRIBUTION_ABOUT:	Not secure
!!		<br>
!!		This poem is attributed to Tasso only in a literary print that was not supervised by the poet and in reprints thereof (see Literary Sources).
!!@DATING:	In or before 1586
!!@DEDICATEE:
!!@COMMENTARY:
!!@@END:		VERSEDATA
!!@@BEGIN:	SETTING
!!@CATALOGNUM:	Trm0433f
!!@RIMETITLE:	Se tu mi lasci, perfida, tuo danno
!!@SETTINGTITLE: Se tu mi lasci, perfido, tuo danno
!!@SOLERTI:	433
!!@COMPOSER:	Della Rota, Adriano 
!!@PRINCEPSTITLE:	Il primo libro de madrigali a cinque voci
!!@PRINCEPSLOC:	Venetia
!!@NORMLOC:	Venice
!!@NORMPUB:	Giacomo Vincenzi
!!@NORMPUBSHORT:	G. Vincenzi
!!@PRINCEPSPUB:	Vincenti
!!@PRINCEPSYEAR:	1600
!!@PRINCEPSRISM:	2781
!!@REPRINTS:	
!!@OVOICES:	5
!!@EXTANTVOICES:	2
!!@PARTBOOKS:	
!!@EXTPARTBOOKS:	
!!@OCLEFS:	C1,F4
!!@OMENSURATION:	C
!!@OKEYSIG:	b-
!!@FINAL:	G
!!@TIMPEDITOR:	Ricciardi, Emiliano
!!@NOTE:		
!!@@END:		SETTING
